svg/icon/wgr.svg

<svg height="32" viewBox="0 0 32 32" width="32" xmlns="http://www.w3.org/2000/svg" xmlns:xlink="http://www.w3.org/1999/xlink"><defs><linearGradient id="a" x1="50%" x2="50%" y1="0%" y2="100%"><stop offset="0" stop-color="#fff" stop-opacity=".5"/><stop offset="1" stop-opacity=".5"/></linearGradient><circle id="b" cx="16" cy="15" r="15"/><filter id="c" height="111.7%" width="111.7%" x="-5.8%" y="-4.2%"><feOffset dy=".5" in="SourceAlpha" result="shadowOffsetOuter1"/><feGaussianBlur in="shadowOffsetOuter1" result="shadowBlurOuter1" stdDeviation=".5"/><feComposite in="shadowBlurOuter1" in2="SourceAlpha" operator="out" result="shadowBlurOuter1"/><feColorMatrix in="shadowBlurOuter1" values="0 0 0 0 0   0 0 0 0 0   0 0 0 0 0  0 0 0 0.199473505 0"/></filter><path id="d" d="m25.8932945 10.3870599c.1554003.2648925.1347002.5432608-.0208.8153339-.2313003.370043-.4455007.7466764-.666501 1.1204572-.6055342 1.0356351-1.2122018 2.0712374-1.8200027 3.106807-.6400676 1.0873742-1.2812686 2.1759288-1.9236029 3.2656638-.5733342.9733383-1.1466683 1.9455619-1.7200025 2.9166706-.1588003.2682369-.3971006.400634-.7114011.3870599-.3074004-.0135742-.5249008-.1664309-.670001-.431225-.1485002-.2648926-.3039004-.5263424-.4593007-.7911366-.5111341-.8714995-1.0222682-1.7418513-1.5334022-2.6110556-.1139002-.1969235-.2314004-.3905026-.3626006-.6077873-.1278002.2172847-.2486004.4110605-.3626005.6077873-.5111341.8714994-1.0222682 1.7418513-1.5334023 2.6110556-.1554002.2614498-.3108005.5263424-.4593007.7911366-.1451002.2648925-.3626005.4176508-.670001.431225-.3142005.0135741-.5525008-.1222657-.7114011-.3870599-.5769008-.9711415-1.1467017-1.9421847-1.7200025-2.9166706-.64353431-1.0874398-1.28476859-2.1759944-1.92370288-3.2656638-.60553423-1.0360942-1.21223514-2.0718277-1.82010271-3.1072005-.22100033-.3734857-.43860065-.7503158-.66650099-1.1204571-.16570025-.2716797-.18990028-.5501464-.03450005-.8149405.15190022-.2614499.39710059-.3870599.71140106-.3870599 1.96850293.0068854 3.93710587.0204596 5.90560877.0034427.4973008-.0033443.7943012.1867921 1.0257015.6010002.4969008.886254 1.0258016 1.7520483 1.5369023 2.6280725.2142004.370043.4248007.7435287.642401 1.11367.0173.0271483.0449001.0475096.0691001.0713135.02728-.0194069.0507024-.0435794.0691001-.0713135.2142003-.3700429.4248006-.7435287.642401-1.11367.5146007-.8760242 1.0396015-1.7452613 1.5369022-2.6280725.2314004-.4141098.5284008-.6044429 1.0257016-.6010002 1.9685029.0169185 3.9371058.0033444 5.9056088-.0034427.3211004 0 .5663008.12561.718301.3870599zm-10.8443161 5.7552407c.041-.0678708.038-.1901364.0028-.2612531-.1001002-.204104-.2314004-.3971913-.3488005-.5975575-.7044011-1.2020004-1.4089021-2.400558-2.1100032-3.6059027-.0721001-.1221673-.1549002-.1663325-.3000004-.1663325-1.312402.0063936-2.62470392.0063936-3.93710588.0098363-.06210009 0-.12410018.0102298-.21410032.0170169 1.60240239 2.7332229 3.1911048 5.446183 4.7970071 8.1862914.1382003-.2305638.2556004-.4142082.3661006-.6043446.5860009-.9903224 1.1673684-1.9829071 1.7441026-2.9777542zm4.010006 3.5821971h-.0004c1.6059023-2.7401083 3.1946047-5.4530684 4.8002071-8.1864881-.0932001-.0071805-.1519002-.0170168-.2141003-.0170168-1.312402-.0030493-2.6247039-.0030493-3.9371059-.0098364-.1446002 0-.2275003.0440668-.3000004.1663325-.7021344 1.2019348-1.4054688 2.4039024-2.1100032 3.6059027-.1174001.1969235-.2452003.3904042-.3488005.5975575-.038.0713134-.038.1935791 0 .2614498.5790675.9937324 1.1604351 1.9863171 1.7441026 2.9777543.1105002.1901364.2280004.3768301.3661006.6043445z"/><filter id="e" height="129.2%" width="117.5%" x="-8.8%" y="-10.4%"><feOffset dy=".5" in="SourceAlpha" result="shadowOffsetOuter1"/><feGaussianBlur in="shadowOffsetOuter1" result="shadowBlurOuter1" stdDeviation=".5"/><feColorMatrix in="shadowBlurOuter1" values="0 0 0 0 0   0 0 0 0 0   0 0 0 0 0  0 0 0 0.204257246 0"/></filter></defs><g fill="none" fill-rule="evenodd"><use fill="#000" filter="url(#c)" xlink:href="#b"/><use fill="#b80000" xlink:href="#b"/><use fill="url(#a)" xlink:href="#b"/><circle cx="16" cy="15" r="14.5" stroke="#000" stroke-opacity=".097"/><g fill-rule="nonzero"><use fill="#000" filter="url(#e)" xlink:href="#d"/><use fill="#fff" fill-rule="evenodd" xlink:href="#d"/></g></g></svg>

<svg xmlns="http://www.w3.org/2000/svg" xmlns:xlink="http://www.w3.org/1999/xlink" width="32" height="32" viewBox="0 0 32 32">
  <defs>
    <linearGradient id="wgr-c" x1="50%" x2="50%" y1="0%" y2="100%">
      <stop offset="0%" stop-color="#FFF" stop-opacity=".5"/>
      <stop offset="100%" stop-opacity=".5"/>
    </linearGradient>
    <circle id="wgr-b" cx="16" cy="15" r="15"/>
    <filter id="wgr-a" width="111.7%" height="111.7%" x="-5.8%" y="-4.2%" filterUnits="objectBoundingBox">
      <feOffset dy=".5" in="SourceAlpha" result="shadowOffsetOuter1"/>
      <feGaussianBlur in="shadowOffsetOuter1" result="shadowBlurOuter1" stdDeviation=".5"/>
      <feComposite in="shadowBlurOuter1" in2="SourceAlpha" operator="out" result="shadowBlurOuter1"/>
      <feColorMatrix in="shadowBlurOuter1" values="0 0 0 0 0   0 0 0 0 0   0 0 0 0 0  0 0 0 0.199473505 0"/>
    </filter>
    <path id="wgr-e" d="M25.8932945,10.3870599 C26.0486948,10.6519524 26.0279947,10.9303207 25.8724945,11.2023938 C25.6411942,11.5724368 25.4269938,11.9490702 25.2059935,12.322851 C24.6004593,13.3584861 23.9937917,14.3940884 23.3859908,15.429658 C22.7459232,16.5170322 22.1047222,17.6055868 21.4623879,18.6953218 C20.8890537,19.6686601 20.3157196,20.6408837 19.7423854,21.6119924 C19.5835851,21.8802293 19.3452848,22.0126264 19.0309843,21.9990523 C18.7235839,21.9854781 18.5060835,21.8326214 18.3609833,21.5678273 C18.2124831,21.3029347 18.0570829,21.0414849 17.9016826,20.7766907 C17.3905485,19.9051912 16.8794144,19.0348394 16.3682804,18.1656351 C16.2543802,17.9687116 16.13688,17.7751325 16.0056798,17.5578478 C15.8778796,17.7751325 15.7570794,17.9689083 15.6430793,18.1656351 C15.1319452,19.0371345 14.6208111,19.9074864 14.109677,20.7766907 C13.9542768,21.0381405 13.7988765,21.3030331 13.6503763,21.5678273 C13.5052761,21.8327198 13.2877758,21.9854781 12.9803753,21.9990523 C12.6661748,22.0126264 12.4278745,21.8767866 12.2689742,21.6119924 C11.6920734,20.6408509 11.1222725,19.6698077 10.5489717,18.6953218 C9.90543739,17.607882 9.26420311,16.5193274 8.62526882,15.429658 C8.01973459,14.3935638 7.41303368,13.3578303 6.80516611,12.3224575 C6.58416578,11.9489718 6.36656546,11.5721417 6.13866512,11.2020004 C5.97296487,10.9303207 5.94876484,10.651854 6.10416507,10.3870599 C6.25606529,10.12561 6.50126566,10 6.81556613,10 C8.78406906,10.0068854 10.752672,10.0204596 12.7211749,10.0034427 C13.2184757,10.0000984 13.5154761,10.1902348 13.7468764,10.6044429 C14.2437772,11.4906969 14.772678,12.3564912 15.2837787,13.2325154 C15.4979791,13.6025584 15.7085794,13.9760441 15.9261797,14.3461854 C15.9434797,14.3733337 15.9710798,14.393695 15.9952798,14.4174989 C16.0225598,14.398092 16.0459822,14.3739195 16.0643799,14.3461854 C16.2785802,13.9761425 16.4891805,13.6026567 16.7067809,13.2325154 C17.2213816,12.3564912 17.7463824,11.4872541 18.2436831,10.6044429 C18.4750835,10.1903331 18.7720839,10 19.2693847,10.0034427 C21.2378876,10.0203612 23.2064905,10.0067871 25.1749935,10 C25.4960939,10 25.7412943,10.12561 25.8932945,10.3870599 Z M15.0489784,16.1423006 C15.0899784,16.0744298 15.0869784,15.9521642 15.0517784,15.8810475 C14.9516782,15.6769435 14.820378,15.4838562 14.7029779,15.28349 C13.9985768,14.0814896 13.2940758,12.882932 12.5929747,11.6775873 C12.5208746,11.55542 12.4380745,11.5112548 12.2929743,11.5112548 C10.9805723,11.5176484 9.66827038,11.5176484 8.35586842,11.5210911 C8.29376833,11.5210911 8.23176824,11.5313209 8.1417681,11.538108 C9.74417049,14.2713309 11.3328729,16.984291 12.9387752,19.7243994 C13.0769755,19.4938356 13.1943756,19.3101912 13.3048758,19.1200548 C13.8908767,18.1297324 14.4722442,17.1371477 15.0489784,16.1423006 Z M19.0589844,19.7244977 L19.0585844,19.7244977 C20.6644867,16.9843894 22.2531891,14.2714293 23.8587915,11.5380096 C23.7655914,11.5308291 23.7068913,11.5209928 23.6446912,11.5209928 C22.3322892,11.5179435 21.0199873,11.5179435 19.7075853,11.5111564 C19.5629851,11.5111564 19.480085,11.5552232 19.4075849,11.6774889 C18.7054505,12.8794237 18.0021161,14.0813913 17.2975817,15.2833916 C17.1801816,15.4803151 17.0523814,15.6737958 16.9487812,15.8809491 C16.9107812,15.9522625 16.9107812,16.0745282 16.9487812,16.1423989 C17.5278487,17.1361313 18.1092163,18.128716 18.6928838,19.1201532 C18.803384,19.3102896 18.9208842,19.4969833 19.0589844,19.7244977 Z"/>
    <filter id="wgr-d" width="117.5%" height="129.2%" x="-8.8%" y="-10.4%" filterUnits="objectBoundingBox">
      <feOffset dy=".5" in="SourceAlpha" result="shadowOffsetOuter1"/>
      <feGaussianBlur in="shadowOffsetOuter1" result="shadowBlurOuter1" stdDeviation=".5"/>
      <feColorMatrix in="shadowBlurOuter1" values="0 0 0 0 0   0 0 0 0 0   0 0 0 0 0  0 0 0 0.204257246 0"/>
    </filter>
  </defs>
  <g fill="none" fill-rule="evenodd">
    <use fill="#000" filter="url(#wgr-a)" xlink:href="#wgr-b"/>
    <use fill="#B80000" xlink:href="#wgr-b"/>
    <use fill="url(#wgr-c)" style="mix-blend-mode:soft-light" xlink:href="#wgr-b"/>
    <circle cx="16" cy="15" r="14.5" stroke="#000" stroke-opacity=".097"/>
    <g fill-rule="nonzero">
      <use fill="#000" filter="url(#wgr-d)" xlink:href="#wgr-e"/>
      <use fill="#FFF" fill-rule="evenodd" xlink:href="#wgr-e"/>
    </g>
  </g>
</svg>
